!!!COM: Fux, Johann Joseph
!!!OMD: Gradus ad Parnassum Exercise
!!!YEC: CC0 1.0 Universal (Public Domain). Mark Gotham and FourScoreAndMore.org waive all rights to this document.
**kern	**kern	**kern
*part3	*part2	*part1
*staff3	*staff2	*staff1
*I"3	*I"2	*I"1
*I'Pno	*I'Pno	*I'Pno
!!LO:PB:g=z
*clefF4	*clefGv2	*clefG2
*k[]	*k[]	*k[]
!!LO:TX:omd:t=
*M4/4	*M4/4	*M4/4
=394	=394	=394
!	!	!LO:TX:a:t=Fig. 149; Species&colon; 4; Modal final&colon; f; Cantus firmus&colon; 2
1F	1F	2r
.	.	[2f/
=395	=395	=395
1C	1G	2f/]
.	.	[2e/
=396	=396	=396
1F	1A	2e/]
.	.	[2d/
=397	=397	=397
1D	1F	2d/]
.	.	[2f/
=398	=398	=398
1BB-X	1D	2f/]
.	.	[2g/
=399	=399	=399
1C	1E	2g/]
.	.	[2a/
=400	=400	=400
1D	1F	2a/]
.	.	[2f/
=401	=401	=401
1A	1c	2f/]
.	.	[2e/
=402	=402	=402
1F	1A	2e/]
.	.	[2d/
=403	=403	=403
1D	1F	2d/]
.	.	[2f/
=404	=404	=404
1C	1G	2f/]
.	.	2e/
=405	=405	=405
1FF	1F	1f
==	==	==
*-	*-	*-
!!!software: music21 v.9.7.1
!!!software: music21 v.9.7.1
!!!software: MuseScore 3.4.2
!!!RDF**kern: > = above
!!!RDF**kern: < = below
